resources/light/refresh.svg

<?xml version="1.0" encoding="UTF-8" standalone="no"?>
<svg
   xmlns:dc="http://purl.org/dc/elements/1.1/"
   xmlns:cc="http://creativecommons.org/ns#"
   xmlns:rdf="http://www.w3.org/1999/02/22-rdf-syntax-ns#"
   xmlns:svg="http://www.w3.org/2000/svg"
   xmlns="http://www.w3.org/2000/svg"
   width="16"
   height="16"
   fill="currentColor"
   version="1.1"
   id="svg4">
  <metadata
     id="metadata10">
    <rdf:RDF>
      <cc:Work
         rdf:about="">
        <dc:format>image/svg+xml</dc:format>
        <dc:type
           rdf:resource="http://purl.org/dc/dcmitype/StillImage" />
        <dc:title></dc:title>
      </cc:Work>
    </rdf:RDF>
  </metadata>
  <defs
     id="defs8" />
  <path
     id="path2"
     d="M 3.5,1 3,1.5 v 12 L 3.5,14 H 7.1308594 C 6.7832947,13.705051 6.4657709,13.37943 6.2109375,13 H 4 V 2 h 5 v 3.5996094 c 0.4067746,-0.1403351 0.8321926,-0.234375 1.287109,-0.234375 0.38312,0 0.754104,0.048051 1.110021,0.1359652 0.241239,0.059588 0.475556,0.1374884 0.702038,0.2311522 0.355772,0.142892 0.672093,0.33895 0.987507,0.5166044 0.0783,0.055322 0.154342,0.1133467 0.228334,0.1737517 C 13.564178,6.6261231 13.790042,6.8565266 14,7.1015625 V 5.0761719 L 13.900391,4.5996094 10.5,1.0996094 10.199219,1 H 9.6367188 Z M 10,2 12.900391,5 H 10 Z"
     style="fill:#424242;fill-opacity:1" />
  <path
     id="path2-36"
     d="m 7.006204,5.578125 a 0.05605387,0.05605387 0 0 0 -0.05078,0.056641 v 2.5800782 a 0.05605387,0.05605387 0 0 0 0.05664,0.056641 h 2.580078 a 0.05605387,0.05605387 0 0 0 0.03906,-0.095703 L 8.66636,7.2109375 c 0.485215,-0.2589389 1.033836,-0.4160156 1.621094,-0.4160156 1.91864,0 3.478515,1.5597136 3.478515,3.4785161 0,0.456803 -0.09083,0.892842 -0.251953,1.292968 a 0.05605387,0.05605387 0 0 0 0.02344,0.06836 l 0.757812,0.443359 a 0.05605387,0.05605387 0 0 0 0.08008,-0.02539 c 0.238397,-0.545394 0.371094,-1.147555 0.371094,-1.779296 0,-2.4587316 -2.00041,-4.4589849 -4.458984,-4.4589849 -0.860182,0 -1.661961,0.2480687 -2.34375,0.671875 L 7.05113,5.5957041 a 0.05605387,0.05605387 0 0 0 -0.03906,-0.017578 0.05605387,0.05605387 0 0 0 -0.0059,0 z M 6.211282,8.5175781 a 0.05605387,0.05605387 0 0 0 -0.03711,0.033203 c -0.222999,0.530495 -0.347657,1.1123425 -0.347657,1.7226569 0,2.458727 2.00221,4.460937 4.460938,4.460937 0.860397,0 1.659839,-0.250023 2.341797,-0.673828 l 0.892578,0.892578 a 0.05605387,0.05605387 0 0 0 0.0957,-0.04102 v -2.580078 a 0.05605387,0.05605387 0 0 0 -0.05664,-0.05469 H 10.98081 a 0.05605387,0.05605387 0 0 0 -0.03906,0.0957 l 0.96289,0.962891 c -0.48503,0.2589 -1.030059,0.416015 -1.617187,0.416015 -1.91864,0 -3.478516,-1.559878 -3.478516,-3.478515 0,-0.4314704 0.08225,-0.8427633 0.226563,-1.22461 A 0.05605387,0.05605387 0 0 0 7.01206,8.980459 L 6.254251,8.5253906 a 0.05605387,0.05605387 0 0 0 -0.0332,-0.00781 0.05605387,0.05605387 0 0 0 -0.0098,0 z"
     style="fill:#424242;stroke:none;stroke-width:0.89999998;stroke-linecap:round;stroke-linejoin:round;stroke-miterlimit:4;stroke-dasharray:none;paint-order:stroke fill markers;fill-opacity:1" />
</svg>

<svg xmlns="http://www.w3.org/2000/svg" width="16" height="16">
   <path d="M3.5 1l-.5.5v12l.5.5h3.63a4.93 4.93 0 01-.92-1H4V2h5v3.6c.407-.14.832-.235 1.287-.235.383 0 .754.048 1.11.136.241.06.476.138.702.231.356.143.672.34.988.517.078.055.154.113.228.174.25.203.475.434.685.679V5.076l-.1-.476-3.4-3.5-.3-.1h-.563zM10 2l2.9 3H10z" fill="#424242"/><path d="M7.006 5.578a.056.056 0 00-.05.057v2.58a.056.056 0 00.056.056h2.58a.056.056 0 00.04-.095l-.966-.965a3.432 3.432 0 011.621-.416 3.482 3.482 0 013.479 3.478c0 .457-.09.893-.252 1.293a.056.056 0 00.023.069l.758.443a.056.056 0 00.08-.025 4.433 4.433 0 00.371-1.78c0-2.458-2-4.459-4.459-4.459-.86 0-1.662.249-2.343.672l-.893-.89a.056.056 0 00-.039-.018.056.056 0 00-.006 0zm-.795 2.94a.056.056 0 00-.037.033 4.435 4.435 0 00-.347 1.722 4.467 4.467 0 004.46 4.461c.86 0 1.66-.25 2.342-.673l.893.892a.056.056 0 00.096-.04v-2.581a.056.056 0 00-.057-.055h-2.58a.056.056 0 00-.04.096l.964.963a3.416 3.416 0 01-1.618.416 3.482 3.482 0 01-3.478-3.479c0-.431.082-.842.227-1.224a.056.056 0 00-.024-.069l-.758-.455a.056.056 0 00-.033-.007.056.056 0 00-.01 0z" fill="#424242" paint-order="stroke fill markers"/>
</svg>
